src/assets/brand-icon-darkTheme.svg

<svg width="33" height="40" viewBox="0 0 33 40" fill="none" xmlns="http://www.w3.org/2000/svg">
<path d="M12.384 32.544C11.5307 32.544 10.784 32.3627 10.144 32C9.52533 31.6587 9.216 31.0507 9.216 30.176C9.216 29.6213 9.35467 29.0027 9.632 28.32C10.016 28.7467 10.368 29.0453 10.688 29.216C11.0293 29.3867 11.392 29.472 11.776 29.472C12.8427 29.472 13.632 28.8747 14.144 27.68C14.6773 26.4853 14.944 25.1627 14.944 23.712C14.944 21.0027 13.9307 19.648 11.904 19.648C11.328 19.648 10.8373 19.68 10.432 19.744L7.808 32H3.2L7.552 11.648L12.288 11.008L10.784 18.112H10.976C11.7867 18.112 12.544 17.856 13.248 17.344C13.952 16.8107 14.5173 16.1493 14.944 15.36C15.3707 14.5493 15.584 13.7387 15.584 12.928C15.584 11.9467 15.232 11.1253 14.528 10.464C13.8453 9.80267 12.7893 9.472 11.36 9.472C10.0587 9.472 8.78933 9.77066 7.552 10.368C6.31467 10.944 5.30133 11.8187 4.512 12.992C3.744 14.1653 3.36 15.584 3.36 17.248C3.36 18.0373 3.43467 18.592 3.584 18.912C3.73333 19.2107 3.808 19.3813 3.808 19.424C2.67733 19.424 1.824 19.2 1.248 18.752C0.672 18.2827 0.384 17.5253 0.384 16.48C0.384 15.0293 0.928 13.6533 2.016 12.352C3.104 11.0507 4.544 10.0053 6.336 9.216C8.128 8.40533 10.016 8 12 8C13.4933 8 14.752 8.23466 15.776 8.704C16.8 9.17333 17.5573 9.792 18.048 10.56C18.56 11.328 18.816 12.1707 18.816 13.088C18.816 14.0693 18.5387 15.0187 17.984 15.936C17.4293 16.8533 16.64 17.6 15.616 18.176C16.896 18.4107 17.8453 19.008 18.464 19.968C19.0827 20.9067 19.392 22.0267 19.392 23.328C19.392 24.544 19.1573 25.8667 18.688 27.296C18.24 28.7253 17.4827 29.9627 16.416 31.008C15.3707 32.032 14.0267 32.544 12.384 32.544Z" fill="white"/>
<path d="M33 10.2498H22V29.7501H33V10.2498Z" fill="#E9E7DB"/>
<path d="M32.2095 11.0667H22.791V29.7485H32.2095V11.0667Z" fill="#E9E7DB"/>
<path d="M31.8552 11.4573H23.144V29.7503H31.8552V11.4573Z" fill="#941D45"/>
<path d="M23.5705 11.8837H31.8552V11.4573H23.144V29.7503H23.5705V11.8837Z" fill="#5D1942"/>
<path d="M30.6754 12.7378H24.3218V20.1681H30.6754V12.7378Z" fill="#F6AEBA"/>
<path d="M30.4471 12.9946H24.5542V19.9119H30.4471V12.9946Z" fill="#202751"/>
<path d="M24.8319 13.2724H30.4455V12.9946H24.5542V19.9119H24.8319V13.2724Z" fill="#16193A"/>
<path d="M28.4032 13.2724L28.5567 12.9946H27.2579L27.106 13.2724H28.4032Z" fill="#1B2044"/>
<path d="M29.5236 13.2724L29.6772 12.9946H29.1135L28.96 13.2724H29.5236Z" fill="#1B2044"/>
<path d="M24.8314 17.4153L24.5537 17.9217V19.9116H24.7596L24.8314 19.7793V17.4153Z" fill="#1B2044"/>
<path d="M30.3507 12.9946L30.1987 13.2724H30.4454V12.9946H30.3507Z" fill="#1B2044"/>
<path d="M31.1831 21.8135C31.4024 21.8135 31.5801 21.6358 31.5801 21.4165C31.5801 21.1973 31.4024 21.0195 31.1831 21.0195C30.9639 21.0195 30.7861 21.1973 30.7861 21.4165C30.7861 21.6358 30.9639 21.8135 31.1831 21.8135Z" fill="#7C153D"/>
<path d="M31.1841 21.6649C31.4034 21.6649 31.5811 21.4871 31.5811 21.2679C31.5811 21.0486 31.4034 20.8708 31.1841 20.8708C30.9649 20.8708 30.7871 21.0486 30.7871 21.2679C30.7871 21.4871 30.9649 21.6649 31.1841 21.6649Z" fill="#FFD0DC"/>
<path d="M31.1666 21.2366C31.2356 21.1407 31.2404 21.0261 31.1774 20.9808C31.1144 20.9355 31.0074 20.9766 30.9384 21.0726C30.8694 21.1685 30.8645 21.2831 30.9276 21.3284C30.9906 21.3737 31.0976 21.3326 31.1666 21.2366Z" fill="#F6DAE9"/>
</svg>

<svg xmlns="http://www.w3.org/2000/svg" width="33" height="40" fill="none" xmlns:v="https://vecta.io/nano"><path d="M12.384 32.544c-.853 0-1.6-.181-2.24-.544-.619-.341-.928-.949-.928-1.824 0-.555.139-1.173.416-1.856.384.427.736.725 1.056.896a2.4 2.4 0 0 0 1.088.256c1.067 0 1.856-.597 2.368-1.792.533-1.195.8-2.517.8-3.968 0-2.709-1.013-4.064-3.04-4.064a9.62 9.62 0 0 0-1.472.096L7.808 32H3.2l4.352-20.352 4.736-.64-1.504 7.104h.192c.811 0 1.568-.256 2.272-.768a6.09 6.09 0 0 0 1.696-1.984c.427-.811.64-1.621.64-2.432a3.24 3.24 0 0 0-1.056-2.464c-.683-.661-1.739-.992-3.168-.992-1.301 0-2.571.299-3.808.896-1.237.576-2.251 1.451-3.04 2.624-.768 1.173-1.152 2.592-1.152 4.256 0 .789.075 1.344.224 1.664.149.299.224.469.224.512-1.131 0-1.984-.224-2.56-.672-.576-.469-.864-1.227-.864-2.272 0-1.451.544-2.827 1.632-4.128s2.528-2.347 4.32-3.136C8.128 8.405 10.016 8 12 8c1.493 0 2.752.235 3.776.704s1.781 1.088 2.272 1.856c.512.768.768 1.611.768 2.528 0 .981-.277 1.931-.832 2.848s-1.344 1.664-2.368 2.24c1.28.235 2.229.832 2.848 1.792.619.939.928 2.059.928 3.36 0 1.216-.235 2.539-.704 3.968-.448 1.429-1.205 2.667-2.272 3.712-1.045 1.024-2.389 1.536-4.032 1.536z" fill="#fff"/><g fill="#e9e7db"><path d="M33 10.25H22v19.5h11v-19.5z"/><path d="M32.21 11.067h-9.418v18.682h9.418V11.067z"/></g><path d="M31.855 11.457h-8.711V29.75h8.711V11.457z" fill="#941d45"/><path d="M23.571 11.884h8.285v-.426h-8.711V29.75h.427V11.884z" fill="#5d1942"/><path d="M30.675 12.738h-6.354v7.43h6.354v-7.43z" fill="#f6aeba"/><path d="M30.447 12.995h-5.893v6.917h5.893v-6.917z" fill="#202751"/><path d="M24.832 13.272h5.614v-.278h-5.891v6.917h.278v-6.639z" fill="#16193a"/><path d="M28.403 13.272l.154-.278h-1.299l-.152.278h1.297zm1.121 0l.154-.278h-.564l-.153.278h.564zm-4.693 4.143l-.278.506v1.99h.206l.072-.132v-2.364zm5.52-4.42l-.152.278h.247v-.278h-.095z" fill="#1b2044"/><path d="M31.183 21.814c.219 0 .397-.178.397-.397s-.178-.397-.397-.397-.397.178-.397.397.178.397.397.397z" fill="#7c153d"/><path d="M31.184 21.665c.219 0 .397-.178.397-.397s-.178-.397-.397-.397-.397.178-.397.397.178.397.397.397z" fill="#ffd0dc"/><path d="M31.167 21.237c.069-.096.074-.21.011-.256s-.17-.004-.239.092-.074.21-.011.256.17.004.239-.092z" fill="#f6dae9"/></svg>
